X:1
T:Title
%%score { 1 | 2 }
L:1/8
M:4/4
K:Ab
V:1 treble nm="Grand Piano"
V:2 bass 
V:1
 z4 z2[Q:1/4=94] [CE]>[CE] | [Ec][Ec][DB][CA] [Ec][CA] [CE]>[CE] | %2
 [DF][FA][EG][DF] [CE]2 [CE]>[CE] | [DF][EG][EA]B E[EA] [EA]>B |[M:9/8] ccB A B2- BE>E | %5
[M:4/4] [Ec][Ec][DB][CA] [Ec][CA] [CE]>[CE] | [DF][FA][EG][DF] [CE]2 [CE]>[CE] | %7
 [DF][EG][EA]B c<e [EA]>[FB] |[M:3/4] [Ec]2 [DB]2 [CA]2 |[M:1/4] c>d |[M:4/4] e2 e2 e2 [Ec]>[DB] | %11
 [CA]2 [CA]2 [CA]2 [EA]>B |[M:3/4] cc cd e<e |[M:1/4] c>A |[M:3/4] B2 B2 B2 |[M:1/4] c>d | %16
[M:4/4] e2 e2 e2 [Ec]>[DB] | [CA]2 [CA]2 [CA]2 [EA]>B |[M:3/4] cc cd e<e |[M:1/4] [EA]>[FB] | %20
[M:3/4] [Ec]2 [DB]2 [CA]2 |] %21
V:2
 z4 z2 [A,,A,]>[A,,A,] | [A,,A,][A,,A,][A,,E,][A,,E,] [A,,A,][A,,A,] [A,,A,]>[A,,A,] | %2
 [D,A,][D,A,][D,A,][D,A,] [A,,A,]2 [A,,A,]>[A,,A,] | %3
 [D,A,][D,B,][C,A,][E,G,E] [E,G,][C,A,] [C,A,]>[E,G,E] | %4
[M:9/8] [A,E][A,E][G,B,E] [F,B,=D] [E,G,E]2- [E,G,E][E,G,]>[E,G,] | %5
[M:4/4] [A,,A,][A,,A,][A,,E,][A,,E,] [A,,A,][A,,A,] [A,,A,]>[A,,A,] | %6
 [D,A,][D,A,][D,A,][D,A,] [A,,A,]2 [A,,A,]>[A,,A,] | %7
 [D,A,][D,B,][C,A,][E,G,E] [A,E]<[A,CE] [C,A,]>[D,A,] |[M:3/4] [E,A,]2 [E,G,]2 [A,,A,]2 | %9
[M:1/4][K:treble] [A,E]>[A,B,E] |[M:4/4] [A,CA]2 [A,CA]2 [A,CA]2[K:bass] [A,,A,]>[A,,E,] | %11
 [A,,E,]2 [A,,E,]2 [A,,E,]2 [C,A,]>[E,G,E] | %12
[M:3/4][K:treble] [A,E][A,E] [A,E][A,B,E] [A,CA]<[A,CA] |[M:1/4][K:bass] [A,E]>[A,C] | %14
[M:3/4] [E,G,E]2 [E,G,E]2 [E,G,E]2 |[M:1/4][K:treble] [A,E]>[A,B,E] | %16
[M:4/4] [A,CA]2 [A,CA]2 [A,CA]2[K:bass] [A,,A,]>[A,,E,] | %17
 [A,,E,]2 [A,,E,]2 [A,,E,]2 [C,A,]>[E,G,E] | %18
[M:3/4][K:treble] [A,E][A,E] [A,E][A,B,E] [A,CA]<[A,CA] |[M:1/4][K:bass] [C,A,]>[D,A,] | %20
[M:3/4] [E,A,]2 [E,G,]2 [A,,A,]2 |] %21

